X: 1
T: Andy Renwick's Favourite Ferret  "(c) Gordon Duncan Book 1"
M:C |\
L:1/8
Q:80
C:Gordon Duncan
S:Hornpipe
K:HP
|: B |\
{g}"flatc"c/2A/2{gAGAG}A{g}A/2B/2{g}"flatc"c/2d/2 |\
{g}e/2a/2{g}a/2g/2a/2g/2{a}e/2f/2 |\
{a}g/2d/2{gdedc}d{g}e/2g/2{a}d/2g/2 |\
{a}c/2d/2g/2d/2{g}e/2g/2{a}d/2B/2 |\
{g}"flatc"c/2A/2{gAGAG}A{g}A/2B/2{g}"flatc"c/2d/2 |\
{g}e/2a/2{g}a/2g/2a/2g/2{a}e/2f/2 |\
{a}g/2d/2{gdedc}d{g}e/2f/2{a}g/2e/2 |\
{gde}d/2B/2{a}g/2B/2{gAGAG}A :|\
|: d |\
{g}e/2a/2{g}a/2g/2a/2g/2{a}e/2g/2 |\
aga/2g/2{a}e/2f/2 |\
{a}g/2d/2{gdedc}d{g}e/2g/2{a}d/2g/2 |\
{a}c/2d/2g/2d/2 |\
[1 {g}e/2g/2{a}d/2g/2 |\
[2 {g}e/2g/2{a}d/2B/2 |\
[1 {a}e/2a/2{g}a/2g/2a/2g/2{a}e/2g/2 |\
aga/2g/2{a}e/2f/2 |\
{a}g/2d/2{gdedc}d{g}e/2f/2{a}g/2e/2 |\
{gde}d/2B/2{a}g/2B/2{gAGAG}A :|\
|: B |\
{g}"flatc"c/2A/2{gAGAG}A{gAGAG}A{g}"flatc"c/2A/2 |\
{gAGAG}A{g}"flatc"c/2A/2a/2g/2{a}e/2f/2 |\
{a}g/2d/2{gdedc}d{g}c/2d/2{g}c/2d/2 |\
{gdedc}d{g}c/2d/2{g}c/2d/2{g}d/2B/2 |\
{g}"flatc"c/2A/2{gAGAG}A{gAGAG}A{g}"flatc"c/2A/2 |\
{gAGAG}A{g}"flatc"c/2A/2a/2g/2{a}e/2f/2 |\
{a}g/2d/2{gdedc}d{g}e/2f/2{a}g/2e/2 |\
{gde}d/2B/2{a}g/2B/2{gAGAG}A :|\
|: d |\
{g}e/2a/2{g}a/2g/2a/2g/2{a}e/2g/2 |\
aga/2g/2{a}e/2f/2 |\
{a}g/2d/2{gdedc}d{g}c/2d/2{g}c/2d/2 |\
{gdedc}d{g}c/2d/2 |\
[1 {g}c/2d/2{g}d/2g/2 |\
[2 {g}c/2d/2{g}d/2B/2 |\
[1 {a}e/2a/2{g}a/2g/2a/2g/2{a}e/2g/2 |\
aga/2g/2{a}e/2f/2 |\
{a}g/2d/2{gdedc}d{g}e/2f/2{a}g/2e/2 |\
{gde}d/2B/2{a}g/2B/2{gAGAG}A :|\
[2 {g}"flatc"c/2A/2{gAGAG}A{g}A/2B/2{g}"flatc"c/2d/2 |\
{g}e/2a/2{g}a/2g/2a/2g/2{a}e/2f/2 |\
{a}g/2d/2{gdedc}d{g}e/2f/2{a}g/2e/2 |\
{gde}d/2B/2{a}g/2B/2{gAGAG}A |]

%%sep 1 1 500

